X:1
T:Title
%%score ( 1 2 ) { 3 | 4 }
L:1/8
Q:1/4=105
M:3/4
K:F
V:1 treble nm="Grand Piano, Soprano"
V:2 treble 
V:3 bass nm="Choir Pad, Stanford, Main, 11.11.11 D"
V:4 bass 
V:1
 [Fc]>A F2 [CF]2 | [EG]>A F2 [CF]2 | AB [Fc]2 [Ff]2 | [Fd]2 [Fc]4 | cd [EB]2 [EB]2 | %5
w: By~Hubert~Platt~Main,~1871 * * *|||||
 Bc [FA]2 [FA]2 | AB [Fc]2 cB | [GB][FA] [EG]4 | [Fc]>A F2 [CF]2 | .G2 z2 z2 | AB [Fc]2 [Ff]2 | %11
w: ||||||
 [Fd]2 [Fc]4 | cd [EB]2 [EB]2 | cB [FA]2 [FA]2 | [Ac]2 [Ac][GB] [FA]2 | [EG]2 F4 | %16
w: |||||
 [CE][DF] [EG]2 [EG]2 | c=B [FA]2 [FA]2 | [Fd][Ac] [G=B]2 [Gc]2 | [Gd]2 [Ge]4 | %20
w: ||||
 c-[Gc] [Ff]2 [Fc]2 | [FA][EG] F2 F2 | [Fc][GB] [FA]2 [FA]2 | [EG]2 F4- | F4 z2 |] %25
w: |||||
V:2
 x6 | x6 | F2 z2 z2 | x6 | F2 z2 z2 | G2 z2 z2 | F2 z2 G2 | x6 | x6 | E-[EA] F2 [CF]2 | F2 z2 z2 | %11
 x6 | F2 z2 z2 | G2 z2 z2 | x6 | x6 | x6 | G2 z2 z2 | x6 | x6 | .E2 z2 z2 | x6 | x6 | x6 | x6 |] %25
V:3
 A,>C A,2 A,2 | B,>C A,2 A,2 | F,G, A,2 C2 | B,2 A,4 | A,B, G,2 G,2 | C2 C2 C2 | %6
 F,G, A,2[K:treble] C2 | C2 C4 | A,>C[K:bass] A,2 A,2 | B,C A,2 A,2 | F,G, A,2 C2 | B,2 A,4 | %12
 A,B, G,2 G,2 | C2 C2 C2 | CF D2 C2 | B,2 A,4 | G,2 C2 C2 | C2 C2 C2 | D2 D2 C2 | =B,2 C4 | %20
 C[K:bass]B, C2 A,2 | CB, A,2 A,2 | CD C2 C2 | B,2 A,4- | A,4 z2 |] %25
V:4
 F,2 F,2 F,2 | C,2 F,2 F,2 | z2 F,2 A,2 | z2 F,4 | F,2 C,2 C,2 | E,2 F,2 F,2 | z2 F,2 E,2 | %7
 F,2 C,4 | F,2 F,2 F,2 | C,2 F,2 F,2 | z2 F,2 A,2 | z2 F,4 | F,2 C,2 C,2 | E,2 F,2 F,2 | %14
 z2 B,,2 C,2 | C,2 F,4 | C,2 C,2 C,2 | E,2 F,2 F,2 | D,2 G,F, E,2 | G,2 z2 z2 | z2 A,2 F,2 | %21
 C,2 D,2 D,2 | A,,B,, C,2 C,2 | C,2 F,4- | F,4 z2 |] %25

